src/img/icons/facebook.svg

<svg width="16" height="16" viewBox="0 0 16 16" fill="none" xmlns="http://www.w3.org/2000/svg">
<path d="M14 0H2C0.90625 0 0 0.90625 0 2V14C0 15.0938 0.90625 16 2 16H8V10.5H6V8H8V6C8 4.34375 9.34375 3 11 3H13V5.5H12C11.4375 5.5 11 5.4375 11 6V8H13.5L12.5 10.5H11V16H14C15.0938 16 16 15.0938 16 14V2C16 0.90625 15.0938 0 14 0Z" fill="#FDFDFD"/>
</svg>

<svg width="16" height="16" fill="none" xmlns="http://www.w3.org/2000/svg"><path d="M14 0H2C1 0 0 1 0 2v12c0 1 1 2 2 2h6v-5.5H6V8h2V6a3 3 0 013-3h2v2.5h-1c-.6 0-1 0-1 .5v2h2.5l-1 2.5H11V16h3c1 0 2-1 2-2V2c0-1-1-2-2-2z" fill="#FDFDFD"/></svg>
